assets/spark/icons/StoreOutline.svg

<svg viewBox="0 0 24 24" xmlns="http://www.w3.org/2000/svg">
    <path d="M21.9258 7.42469 19.8474 2.59908C19.7693 2.42187 19.6413 2.27102 19.4788 2.1647 19.3163 2.05837 19.1264 2.00116 18.9319 2H5.06802C4.8745 2.00066 4.68541 2.05777 4.52416 2.16425 4.36292 2.27073 4.23662 2.4219 4.16082 2.59908L2.0742 7.42469C2.02505 7.55026 1.9999 7.68389 2 7.81865V9.19739C2 10.1885 2.39507 11.1391 3.09858 11.8407 3.80209 12.5423 4.75656 12.9375 5.75257 12.9397H6.14017C6.63396 12.9405 7.123 12.8438 7.57889 12.655 8.03478 12.4662 8.44847 12.1891 8.79587 11.84L8.91134 11.7333C8.94499 11.7709 8.98079 11.8065 9.01856 11.84 9.36597 12.1891 9.7796 12.4662 10.2355 12.655 10.6914 12.8438 11.1804 12.9405 11.6742 12.9397H12.367C12.8608 12.9405 13.3498 12.8438 13.8057 12.655 14.2616 12.4662 14.6753 12.1891 15.0227 11.84L15.1381 11.7333 15.2454 11.84C15.5928 12.1891 16.0064 12.4662 16.4623 12.655 16.9182 12.8438 17.4072 12.9405 17.901 12.9397H18.2474C19.2434 12.9375 20.1979 12.5423 20.9014 11.8407 21.6049 11.1391 22 10.1885 22 9.19739V7.81865C22.0001 7.68389 21.9749 7.55026 21.9258 7.42469ZM12.367 10.97H11.6742C11.4407 10.97 11.2094 10.9241 10.9937 10.8349 10.7781 10.7458 10.5822 10.6151 10.4175 10.4503 10.2527 10.2856 10.1223 10.0901 10.0336 9.87511 9.94501 9.66009 9.89991 9.42979 9.90099 9.19739V8.80347H14.1484V9.19739C14.1463 9.66686 13.9579 10.1165 13.6243 10.4484 13.2906 10.7804 12.8388 10.9679 12.367 10.97ZM18.2474 10.97H17.901C17.6674 10.97 17.4362 10.9241 17.2205 10.8349 17.0049 10.7458 16.809 10.6151 16.6443 10.4503 16.4795 10.2856 16.3491 10.0901 16.2604 9.87511 16.1718 9.66009 16.1268 9.42979 16.1278 9.19739V8.80347H20.0206V9.19739C20.0217 9.42979 19.9766 9.66009 19.888 9.87511 19.7994 10.0901 19.6689 10.2856 19.5042 10.4503 19.3394 10.6151 19.1436 10.7458 18.9279 10.8349 18.7122 10.9241 18.481 10.97 18.2474 10.97ZM19.5093 6.86663H4.49069L5.7196 4.00246H18.2804L19.5093 6.86663ZM6.14017 10.97H5.75257C5.28251 10.969 4.8319 10.7832 4.49894 10.453 4.16814 10.1177 3.98175 9.66727 3.97935 9.19739V8.80347H7.92164V9.19739C7.91947 9.66686 7.73109 10.1165 7.39747 10.4484 7.06385 10.7804 6.61197 10.9679 6.14017 10.97ZM16.7795 17.9131C17.0419 17.9131 17.2937 17.8093 17.4793 17.6246 17.6649 17.4399 17.7692 17.1895 17.7692 16.9283 17.7692 16.6671 17.6649 16.4166 17.4793 16.2319 17.2937 16.0472 17.0419 15.9434 16.7795 15.9434H15.3609C15.0984 15.9434 14.8467 16.0472 14.6611 16.2319 14.4755 16.4166 14.3712 16.6671 14.3712 16.9283 14.3712 17.1895 14.4755 17.4399 14.6611 17.6246 14.8467 17.8093 15.0984 17.9131 15.3609 17.9131H16.7795Z"/><path d="M19.6247 13.0382C19.3623 13.0382 19.1105 13.1419 18.9249 13.3266C18.7393 13.5113 18.635 13.7618 18.635 14.023V19.6036C18.6361 19.6593 18.6261 19.7146 18.6054 19.7663C18.5848 19.8181 18.5539 19.8652 18.5148 19.9049C18.4756 19.9447 18.4289 19.9762 18.3773 19.9977C18.3257 20.0193 18.2703 20.0304 18.2144 20.0304H13.266V15.8285C13.266 15.3801 13.087 14.9501 12.7684 14.6331C12.4497 14.316 12.0176 14.1379 11.567 14.1379H8.06184C7.61124 14.1379 7.17913 14.316 6.86051 14.6331C6.5419 14.9501 6.36287 15.3801 6.36287 15.8285V20.0304H5.7938C5.73786 20.0304 5.68248 20.0193 5.6309 19.9977C5.57932 19.9762 5.5326 19.9447 5.49343 19.9049C5.45426 19.8652 5.42346 19.8181 5.40282 19.7663C5.38217 19.7146 5.37207 19.6593 5.37317 19.6036V14.023C5.37317 13.7618 5.26892 13.5113 5.08332 13.3266C4.89772 13.1419 4.64595 13.0382 4.38347 13.0382C4.12099 13.0382 3.86927 13.1419 3.68367 13.3266C3.49806 13.5113 3.39382 13.7618 3.39382 14.023V19.6036C3.39273 19.9179 3.454 20.2294 3.57413 20.5201C3.69425 20.8108 3.87085 21.075 4.09382 21.2976C4.31679 21.5203 4.58174 21.6969 4.87346 21.8174C5.16518 21.938 5.47793 22 5.7938 22H18.2227C18.5385 22 18.8513 21.938 19.143 21.8174C19.4347 21.6969 19.6997 21.5203 19.9226 21.2976C20.1456 21.075 20.3222 20.8108 20.4423 20.5201C20.5625 20.2294 20.6237 19.9179 20.6226 19.6036V14.023C20.6227 13.893 20.5968 13.7642 20.5465 13.6442C20.4963 13.5242 20.4227 13.4153 20.3299 13.3237C20.2371 13.2321 20.127 13.1598 20.006 13.1108C19.885 13.0618 19.7554 13.0371 19.6247 13.0382ZM11.2784 16.1075V20.0304H8.33402V16.1075H11.2784Z"/>
</svg>

<svg viewBox="0 0 24 24" xmlns="http://www.w3.org/2000/svg">
  <path d="m21.93,7.42l-2.08-4.83c-.08-.18-.21-.33-.37-.43-.16-.11-.35-.16-.55-.16H5.07c-.19,0-.38.06-.54.16-.16.11-.29.26-.36.43l-2.09,4.83c-.05.13-.07.26-.07.39v1.38c0,.99.4,1.94,1.1,2.64.7.7,1.66,1.1,2.65,1.1h.39c.49,0,.98-.1,1.44-.28s.87-.47,1.22-.81l.12-.11s.07.07.11.11c.35.35.76.63,1.22.81.46.19.94.29,1.44.28h.69c.49,0,.98-.1,1.44-.28.46-.19.87-.47,1.22-.81l.12-.11.11.11c.35.35.76.63,1.22.81s.94.29,1.44.28h.35c1,0,1.95-.4,2.65-1.1.7-.7,1.1-1.65,1.1-2.64v-1.38c0-.13-.03-.27-.07-.39Zm-9.56,3.55h-.69c-.23,0-.46-.05-.68-.14-.22-.09-.41-.22-.58-.38-.16-.16-.3-.36-.38-.58-.09-.22-.13-.45-.13-.68v-.39h4.25v.39c0,.47-.19.92-.52,1.25-.33.33-.79.52-1.26.52Zm5.88,0h-.35c-.23,0-.46-.05-.68-.14-.22-.09-.41-.22-.58-.38-.16-.16-.3-.36-.38-.58-.09-.22-.13-.45-.13-.68v-.39h3.89v.39c0,.23-.04.46-.13.68-.09.21-.22.41-.38.58-.16.16-.36.3-.58.38-.22.09-.45.14-.68.14Zm1.26-4.1H4.49l1.23-2.86h12.56l1.23,2.86Zm-13.37,4.1h-.39c-.47,0-.92-.19-1.25-.52-.33-.34-.52-.79-.52-1.26v-.39h3.94v.39c0,.47-.19.92-.52,1.25-.33.33-.79.52-1.26.52Zm10.64,6.94c.26,0,.51-.1.7-.29s.29-.44.29-.7-.1-.51-.29-.7-.44-.29-.7-.29h-1.42c-.26,0-.51.1-.7.29-.19.18-.29.44-.29.7s.1.51.29.7c.19.18.44.29.7.29h1.42Z"/>
  <path d="m19.62,13.04c-.26,0-.51.1-.7.29s-.29.44-.29.7v5.58c0,.06,0,.11-.03.16-.02.05-.05.1-.09.14-.04.04-.09.07-.14.09-.05.02-.11.03-.16.03h-4.95v-4.2c0-.45-.18-.88-.5-1.2-.32-.32-.75-.5-1.2-.5h-3.51c-.45,0-.88.18-1.2.5-.32.32-.5.75-.5,1.2v4.2h-.57c-.06,0-.11-.01-.16-.03-.05-.02-.1-.05-.14-.09-.04-.04-.07-.09-.09-.14-.02-.05-.03-.11-.03-.16v-5.58c0-.26-.1-.51-.29-.7-.19-.18-.44-.29-.7-.29s-.51.1-.7.29c-.19.18-.29.44-.29.7v5.58c0,.31.06.63.18.92.12.29.3.55.52.78.22.22.49.4.78.52.29.12.6.18.92.18h12.43c.32,0,.63-.06.92-.18.29-.12.56-.3.78-.52.22-.22.4-.49.52-.78.12-.29.18-.6.18-.92v-5.58c0-.13-.03-.26-.08-.38-.05-.12-.12-.23-.22-.32s-.2-.16-.32-.21-.25-.07-.38-.07Zm-8.35,3.07v3.92h-2.94v-3.92h2.94Z"/>
</svg>
